X: 33
T: Lamentatio Jeremie prophete
N: Derived from Ort2005-Lamentatio_Jeremie_prophete.krn
C: Marbrianus de Orto
%%abc-version 2.0
%%abcx-abcm2ps-target-version 5.9.1 (29 Sep 2008)
%%abc-creator hum2abc beta
%%abcx-conversion-date 2019/02/17 07:28:38
%%abc-edited-by Jesse Rodin
%%abc-edited-by Jesse Rodin 8/6/2013
%%abcx-initial-encoding-date 2015/06/16/
%%humdrum-veritas 2990649187
%%humdrum-veritas-data 330483520
%%linebreak <none>
%%barnumbers 0
L: 1/4
M: 2/1
Q: 1/2=120
%%staves [1 2 3 4]
V: 1 clef=treble-8
V: 2 clef=treble-8
V: 3 clef=treble-8
V: 4 clef=bass
K: C
[V:1] A8 | 
[V:2] A8 | 
[V:3] A8- | 
[V:4] A,,8- | 
[V:1] e8 | 
[V:2] c8 | 
[V:3] A8 | 
[V:4] A,,8 | 
[V:1] f8- | 
[V:2] d8- | 
[V:3] A8- | 
[V:4] D,8- | 
[V:1] f4e4 | 
[V:2] d4c4 | 
[V:3] A4A4 | 
[V:4] D,4A,,4 | 
[V:1] !fermata!e8 | 
[V:2] !fermata!c8 | 
[V:3] !fermata!A8 | 
[V:4] !fermata!A,,8 | 
[V:1] e4e4 | 
[V:2] c4c4 | 
[V:3] A4A4 | 
[V:4] A,,4A,,4 | 
[V:1] e8- | 
[V:2] c8- | 
[V:3] G8- | 
[V:4] C,8- | 
[V:1] e4f4 | 
[V:2] c4A4 | 
[V:3] G4F4 | 
[V:4] C,4D,4 | 
[V:1] d8 | 
[V:2] D8 | 
[V:3] G8 | 
[V:4] B,,8 | 
[V:1] !fermata!c8 | 
[V:2] !fermata!E8 | 
[V:3] !fermata!A8 | 
[V:4] !fermata!A,,8 | 
[V:1] c4c4 | 
[V:2] E4E4 | 
[V:3] A4A4 | 
[V:4] A,,4A,,4 | 
[V:1] c6d2 | 
[V:2] E8 | 
[V:3] A4G2F2 | 
[V:4] A,,8- | 
[V:1] e3dc2B2 | 
[V:2] C8 | 
[V:3] E8 | 
[V:4] A,,8 | 
[V:1] !fermata!A8 | 
[V:2] !fermata!C8 | 
[V:3] !fermata!F8 | 
[V:4] !fermata!F,,8 | 
[V:1] z8 | 
[V:2] z8 | 
[V:3] z8 | 
[V:4] z8 | 
[V:1] c6d2 | 
[V:2] F8 | 
[V:3] A8 | 
[V:4] F,,8 | 
[V:1] e8 | 
[V:2] G4c4 | 
[V:3] G8 | 
[V:4] C,8 | 
[V:1] f4e2d2 | 
[V:2] A8- | 
[V:3] F8 | 
[V:4] D,8 | 
[V:1] ^c8 | 
[V:2] A8 | 
[V:3] E8 | 
[V:4] A,,8 | 
[V:1] d8- | 
[V:2] F6G2 | 
[V:3] D8- | 
[V:4] D,8- | 
[V:1] d8 ||  
[V:2] A8 ||  
[V:3] D8 ||  
[V:4] D,8 ||  
[V:1]  [K:C] [K:clef=treble-8][M:2/1]e8 | 
[V:2]  [K:C] [K:clef=treble-8][M:2/1]c8 | 
[V:3]  [K:C] [K:clef=treble-8][M:2/1]A8- | 
[V:4]  [K:C] [K:clef=bass][M:2/1]A,,8 | 
[V:1] f8- | 
[V:2] d8- | 
[V:3] A8- | 
[V:4] D,8- | 
[V:1] f4e4 | 
[V:2] d8 | 
[V:3] A8 | 
[V:4] D,4C,4 | 
[V:1] e8- | 
[V:2] c8 | 
[V:3] A6GF | 
[V:4] A,,8- | 
[V:1] e4d4 | 
[V:2] A8- | 
[V:3] E8- | 
[V:4] A,,8 | 
[V:1] c8 | 
[V:2] A8 | 
[V:3] E4F4 | 
[V:4] A,,8 | 
[V:1] !fermata!B8 | 
[V:2] !fermata!D8 | 
[V:3] !fermata!G8 | 
[V:4] !fermata!G,,8 | 
[V:1] z8 | 
[V:2] z8 | 
[V:3] z8 | 
[V:4] z8 | 
[V:1] B6c2 | 
[V:2] D8- | 
[V:3] G8- | 
[V:4] G,,8- | 
[V:1] d8- | 
[V:2] D8 | 
[V:3] G8- | 
[V:4] G,,8 | 
[V:1] d4c2B2 | 
[V:2] D6E2 | 
[V:3] G8 | 
[V:4] B,,4C,4 | 
[V:1] A8 | 
[V:2] F4D4- | 
[V:3] z4F4 | 
[V:4] D,8 | 
[V:1] B4c4 | 
[V:2] D4E4 | 
[V:3] G4A4 | 
[V:4] B,,4A,,4 | 
[V:1] d4B4- | 
[V:2] G4z4 | 
[V:3] _B4G4- | 
[V:4] G,,4E,4- | 
[V:1] B4A4 | 
[V:2] z4E4 | 
[V:3] G4A4 | 
[V:4] E,4A,,4 | 
[V:1] A8 ||  
[V:2] E8 ||  
[V:3] A8 ||  
[V:4] A,,8 ||  
[V:1]  [K:C] [K:clef=treble-8][M:2/1]A8 | 
[V:2]  [K:C] [K:clef=treble-8][M:2/1]E8- | 
[V:3]  [K:C] [K:clef=treble-8][M:2/1]A8- | 
[V:4]  [K:C] [K:clef=bass][M:2/1]A,,8- | 
[V:1] c8 | 
[V:2] E8 | 
[V:3] A8 | 
[V:4] A,,8 | 
[V:1] d4e4- | 
[V:2] F4E4 | 
[V:3] F4G4 | 
[V:4] D,4C,4 | 
[V:1] e2d2c2B2 | 
[V:2] E4F2G2 | 
[V:3] A6GF | 
[V:4] A,,8- | 
[V:1] c8 | 
[V:2] A8 | 
[V:3] E8 | 
[V:4] A,,8 | 
[V:1] d8 | 
[V:2] F8 | 
[V:3] D8 | 
[V:4] A,8 | 
[V:1] d8 | 
[V:2] A8 | 
[V:3] D8 | 
[V:4] F,8 | 
[V:1] d8 | 
[V:2] A8 | 
[V:3] F8 | 
[V:4] D,8 | 
[V:1] d4d4 | 
[V:2] _B4_B4 | 
[V:3] F4F4 | 
[V:4] _B,,4B,,4 | 
[V:1] d4d4 | 
[V:2] _B4_B4 | 
[V:3] F4F4 | 
[V:4] _B,,4B,,4 | 
[V:1] !fermata!d8 | 
[V:2] !fermata!_B8 | 
[V:3] !fermata!G8 | 
[V:4] !fermata!G,,8 | 
[V:1] z8 | 
[V:2] z8 | 
[V:3] z8 | 
[V:4] z8 | 
[V:1] d8 | 
[V:2] _B8 | 
[V:3] G8 | 
[V:4] G,,8 | 
[V:1] c8- | 
[V:2] A8- | 
[V:3] E8- | 
[V:4] A,,8- | 
[V:1] c4B4 | 
[V:2] A8 | 
[V:3] E8 | 
[V:4] A,,8 | 
[V:1] A8 | 
[V:2] c8- | 
[V:3] F8 | 
[V:4] F,,8 | 
[V:1] G8 | 
[V:2] c8 | 
[V:3] E8 | 
[V:4] C,8 | 
[V:1] c4B2A2 | 
[V:2] z4F4 | 
[V:3] C8 | 
[V:4] A,,8 | 
[V:1] B8 | 
[V:2] G8 | 
[V:3] D8 | 
[V:4] G,,8 | 
[V:1] c8- | 
[V:2] E8 | 
[V:3] C8- | 
[V:4] G,8 | 
[V:1] !fermata!c8 | 
[V:2] !fermata!G8 | 
[V:3] !fermata!C8 | 
[V:4] !fermata!E,8 | 
[V:1] z8 | 
[V:2] z8 | 
[V:3] z8 | 
[V:4] z8 | 
[V:1] e8- | 
[V:2] c8- | 
[V:3] C8- | 
[V:4] G,8- | 
[V:1] e4e4 | 
[V:2] c4c4 | 
[V:3] C4C4 | 
[V:4] G,4G,4 | 
[V:1] e8 | 
[V:2] c8 | 
[V:3] G8 | 
[V:4] C,8 | 
[V:1] e4e4 | 
[V:2] c4c4 | 
[V:3] A4A4 | 
[V:4] A,,4A,,4 | 
[V:1] e4e4 | 
[V:2] c4c4 | 
[V:3] A4A4 | 
[V:4] A,,4A,,4 | 
[V:1] e8 | 
[V:2] c8 | 
[V:3] A8 | 
[V:4] A,,8 | 
[V:1] f8- | 
[V:2] d8- | 
[V:3] A4A4 | 
[V:4] D,8- | 
[V:1] f4e4 | 
[V:2] d4c4 | 
[V:3] A8- | 
[V:4] D,4A,,4 | 
[V:1] e8 | 
[V:2] c8 | 
[V:3] A8 | 
[V:4] A,,8 | 
[V:1] d8- | 
[V:2] A8- | 
[V:3] F8 | 
[V:4] D,8 | 
[V:1] d4c4 | 
[V:2] A4G4 | 
[V:3] D4E4 | 
[V:4] z8 | 
[V:1] d8 | 
[V:2] A8 | 
[V:3] F8 | 
[V:4] D,4D,4 | 
[V:1] !fermata!e8 | 
[V:2] !fermata!A8 | 
[V:3] !fermata!E8 | 
[V:4] !fermata!A,,8 | 
[V:1] z8 | 
[V:2] z8 | 
[V:3] z8 | 
[V:4] z8 | 
[V:1] c8 | 
[V:2] A8 | 
[V:3] E8 | 
[V:4] A,,8 | 
[V:1] d8- | 
[V:2] F8- | 
[V:3] D8- | 
[V:4] _B,,8- | 
[V:1] d4c2d2 | 
[V:2] F8 | 
[V:3] D8 | 
[V:4] B,,8 | 
[V:1] e8 | 
[V:2] E4G4 | 
[V:3] C4E4- | 
[V:4] C,8 | 
[V:1] c8 | 
[V:2] A8 | 
[V:3] E4F4 | 
[V:4] A,,8 | 
[V:1] z8 | 
[V:2] B8 | 
[V:3] G8 | 
[V:4] G,,8 | 
[V:1] c8 | 
[V:2] A8 | 
[V:3] E8 | 
[V:4] A,,8 | 
[V:1] c4c4 | 
[V:2] A4A4 | 
[V:3] F8 | 
[V:4] F,,4F,,4 | 
[V:1] B8 | 
[V:2] G8 | 
[V:3] D4E4 | 
[V:4] G,,8 | 
[V:1] !fermata!A8 | 
[V:2] !fermata!C8 | 
[V:3] !fermata!F8 | 
[V:4] !fermata!F,,8 | 
[V:1] z8 | 
[V:2] z8 | 
[V:3] z8 | 
[V:4] z8 | 
[V:1] A8 | 
[V:2] C8 | 
[V:3] F8 | 
[V:4] A,,8 | 
[V:1] B8- | 
[V:2] D8- | 
[V:3] G8- | 
[V:4] G,,8- | 
[V:1] B4A2B2 | 
[V:2] D8 | 
[V:3] G8 | 
[V:4] G,,8 | 
[V:1] !fermata!c8 | 
[V:2] z4!fermata!A4 | 
[V:3] !fermata!E8 | 
[V:4] !fermata!A,,8 | 
[V:1] z8 | 
[V:2] z8 | 
[V:3] z8 | 
[V:4] z8 | 
[V:1] c8 | 
[V:2] A8 | 
[V:3] E8 | 
[V:4] A,,8 | 
[V:1] d4e4- | 
[V:2] B4c4- | 
[V:3] F4G4- | 
[V:4] D,4C,4- | 
[V:1] e4d4 | 
[V:2] c4A4 | 
[V:3] G4F4 | 
[V:4] C,4D,4 | 
[V:1] ^c8 | 
[V:2] A8 | 
[V:3] E8 | 
[V:4] A,,8 | 
[V:1] d8- | 
[V:2] F6G2 | 
[V:3] D8- | 
[V:4] D,8- | 
[V:1] d8 ||  
[V:2] A8 ||  
[V:3] D8 ||  
[V:4] D,8 ||  
[V:1]  [K:C] [K:clef=treble-8][M:2/1]e8 | 
[V:2]  [K:C] [K:clef=treble-8][M:2/1]c8 | 
[V:3]  [K:C] [K:clef=treble-8][M:2/1]A8- | 
[V:4]  [K:C] [K:clef=bass][M:2/1]A,,8 | 
[V:1] f8- | 
[V:2] d8- | 
[V:3] A8- | 
[V:4] D,8- | 
[V:1] f4e4 | 
[V:2] d8 | 
[V:3] A8 | 
[V:4] D,4C,4 | 
[V:1] e8- | 
[V:2] c8 | 
[V:3] A6GF | 
[V:4] A,,8- | 
[V:1] e4d4 | 
[V:2] A8- | 
[V:3] E8- | 
[V:4] A,,8 | 
[V:1] c8 | 
[V:2] A8 | 
[V:3] E4F4 | 
[V:4] A,,8 | 
[V:1] !fermata!B8 | 
[V:2] !fermata!D8 | 
[V:3] !fermata!G8 | 
[V:4] !fermata!G,,8 | 
[V:1] z8 | 
[V:2] z8 | 
[V:3] z8 | 
[V:4] z8 | 
[V:1] B6c2 | 
[V:2] D8- | 
[V:3] G8- | 
[V:4] G,,8- | 
[V:1] d8- | 
[V:2] D8 | 
[V:3] G8- | 
[V:4] G,,8 | 
[V:1] d4c2B2 | 
[V:2] D6E2 | 
[V:3] G8 | 
[V:4] B,,4C,4 | 
[V:1] A8 | 
[V:2] F4D4- | 
[V:3] z4F4 | 
[V:4] D,8 | 
[V:1] B4c4 | 
[V:2] D4E4 | 
[V:3] G4A4 | 
[V:4] B,,4A,,4 | 
[V:1] d4B4- | 
[V:2] G4z4 | 
[V:3] _B4G4- | 
[V:4] G,,4E,4- | 
[V:1] B4A4 | 
[V:2] z4E4 | 
[V:3] G4A4 | 
[V:4] E,4A,,4 | 
[V:1] A8 ||  
[V:2] E8 ||  
[V:3] A8 ||  
[V:4] A,,8 ||  
[V:1]  [K:C] [K:clef=treble-8][M:2/1]A8- | 
[V:2]  [K:C] [K:clef=treble-8][M:2/1]E8- | 
[V:3]  [K:C] [K:clef=treble-8][M:2/1]A8- | 
[V:4]  [K:C] [K:clef=bass][M:2/1]A,,8- | 
[V:1] A4B4 | 
[V:2] E4F2G2 | 
[V:3] A4G2F2 | 
[V:4] A,,8 | 
[V:1] c8 | 
[V:2] A8 | 
[V:3] E8 | 
[V:4] A,,8 | 
[V:1] d8 | 
[V:2] F8 | 
[V:3] D8 | 
[V:4] A,8 | 
[V:1] z4d4 | 
[V:2] z4A4 | 
[V:3] z4F4 | 
[V:4] z4D,4 | 
[V:1] d8 | 
[V:2] _B8 | 
[V:3] F8 | 
[V:4] _B,,8 | 
[V:1] d4d4 | 
[V:2] _B4_B4 | 
[V:3] F4D4 | 
[V:4] _B,,4B,,4 | 
[V:1] d8 | 
[V:2] _B8 | 
[V:3] F8 | 
[V:4] _B,,8 | 
[V:1] c4c4- | 
[V:2] G4F4 | 
[V:3] E4C4 | 
[V:4] C,4A,,4 | 
[V:1] c4B4 | 
[V:2] G8 | 
[V:3] D8 | 
[V:4] G,,8 | 
[V:1] c8- | 
[V:2] E8 | 
[V:3] C8- | 
[V:4] G,8 | 
[V:1] !fermata!c8 | 
[V:2] !fermata!G8 | 
[V:3] !fermata!C8 | 
[V:4] !fermata!E,8 | 
[V:1] z8 | 
[V:2] z8 | 
[V:3] z8 | 
[V:4] z8 | 
[V:1] c8 | 
[V:2] G8 | 
[V:3] E8 | 
[V:4] C,8 | 
[V:1] c4c4 | 
[V:2] A4A4 | 
[V:3] F4F4 | 
[V:4] F,,4F,,4 | 
[V:1] c8 | 
[V:2] A8 | 
[V:3] F6E2 | 
[V:4] F,,8- | 
[V:1] z4c4 | 
[V:2] c3BA4 | 
[V:3] C4D4 | 
[V:4] F,,8 | 
[V:1] B8 | 
[V:2] G8 | 
[V:3] E8 | 
[V:4] G,,8 | 
[V:1] !fermata!A8 | 
[V:2] !fermata!C8 | 
[V:3] !fermata!F8 | 
[V:4] !fermata!F,,8 | 
[V:1] z8 | 
[V:2] z8 | 
[V:3] z8 | 
[V:4] z8 | 
[V:1] A4A4 | 
[V:2] c4c4 | 
[V:3] F4F4 | 
[V:4] F,,4F,,4 | 
[V:1] c8- | 
[V:2] A8- | 
[V:3] F8- | 
[V:4] F,,8- | 
[V:1] c4B4 | 
[V:2] A8 | 
[V:3] F8 | 
[V:4] F,,8 | 
[V:1] A8 | 
[V:2] c8- | 
[V:3] F8 | 
[V:4] F,,8 | 
[V:1] G8 | 
[V:2] c4G4 | 
[V:3] E8 | 
[V:4] C,8 | 
[V:1] c4B2A2 | 
[V:2] A4F4 | 
[V:3] C8 | 
[V:4] A,,8 | 
[V:1] B8 | 
[V:2] G8 | 
[V:3] D8 | 
[V:4] G,,8 | 
[V:1] c8- | 
[V:2] E8 | 
[V:3] C8- | 
[V:4] G,8 | 
[V:1] !fermata!c8 | 
[V:2] !fermata!G8 | 
[V:3] !fermata!C8 | 
[V:4] !fermata!E,8 | 
[V:1] z8 | 
[V:2] z8 | 
[V:3] z8 | 
[V:4] z8 | 
[V:1] c8 | 
[V:2] A8 | 
[V:3] F8 | 
[V:4] F,8 | 
[V:1] d4d4 | 
[V:2] _B4_B4 | 
[V:3] F4F4 | 
[V:4] _B,,4B,,4 | 
[V:1] d4d4 | 
[V:2] _B4_B4 | 
[V:3] F4D4 | 
[V:4] _B,,4B,,4 | 
[V:1] d6c2 | 
[V:2] _B4A2G2 | 
[V:3] F8 | 
[V:4] _B,,8 | 
[V:1] A8 | 
[V:2] F4D4 | 
[V:3] F4G4 | 
[V:4] D,6C,2 | 
[V:1] c4B2A2 | 
[V:2] E8 | 
[V:3] A4G2F2 | 
[V:4] A,,8 | 
[V:1] B8 | 
[V:2] z4E4 | 
[V:3] G8 | 
[V:4] E,8 | 
[V:1] !fermata!A8 | 
[V:2] !fermata!E8 | 
[V:3] !fermata!A8 | 
[V:4] !fermata!A,,8 | 
[V:1] z8 | 
[V:2] z8 | 
[V:3] z8 | 
[V:4] z8 | 
[V:1] c8 | 
[V:2] E8 | 
[V:3] A8 | 
[V:4] A,,8 | 
[V:1] d4c4 | 
[V:2] D4E4 | 
[V:3] G4A4 | 
[V:4] _B,,4A,,4 | 
[V:1] c8 | 
[V:2] F8 | 
[V:3] A8 | 
[V:4] F,,8 | 
[V:1] e8 | 
[V:2] z4c4 | 
[V:3] G8 | 
[V:4] C,8 | 
[V:1] d4e4- | 
[V:2] B4c4- | 
[V:3] F4G4- | 
[V:4] D,4C,4- | 
[V:1] e4d4- | 
[V:2] c4G4 | 
[V:3] G4D4 | 
[V:4] C,4B,,4 | 
[V:1] d4^c4 | 
[V:2] A8 | 
[V:3] E8 | 
[V:4] A,,8 | 
[V:1] d8- | 
[V:2] F6G2 | 
[V:3] D8- | 
[V:4] D,8- | 
[V:1] d8 ||  
[V:2] A8 ||  
[V:3] D8 ||  
[V:4] D,8 ||  
[V:1]  [K:C] [K:clef=treble-8][M:2/1]d8- | 
[V:2]  [K:C] [K:clef=treble-8][M:2/1]A8 | 
[V:3]  [K:C] [K:clef=treble-8][M:2/1]F8- | 
[V:4]  [K:C] [K:clef=bass][M:2/1]D,8- | 
[V:1] d8 | 
[V:2] A6GF | 
[V:3] F8 | 
[V:4] D,8 | 
[V:1] e4e4 | 
[V:2] E4C4 | 
[V:3] G4G4 | 
[V:4] C,4C,4 | 
[V:1] d4d4 | 
[V:2] D4D4 | 
[V:3] G4G4 | 
[V:4] B,,4B,,4 | 
[V:1] c8 | 
[V:2] E8 | 
[V:3] A8 | 
[V:4] A,,8 | 
[V:1] c8 | 
[V:2] E8 | 
[V:3] A8 | 
[V:4] A,,8 | 
[V:1] z8 | 
[V:2] D4E4 | 
[V:3] G4A4 | 
[V:4] B,,4A,,4 | 
[V:1] d8 | 
[V:2] G8 | 
[V:3] _B8 | 
[V:4] G,,8 | 
[V:1] c4e4 | 
[V:2] E4C4 | 
[V:3] A4G2F2 | 
[V:4] A,,8 | 
[V:1] d8 | 
[V:2] D8 | 
[V:3] G8 | 
[V:4] _B,,8 | 
[V:1] c4e4- | 
[V:2] E8- | 
[V:3] A8 | 
[V:4] A,,8- | 
[V:1] e2d2c2B2 | 
[V:2] E8 | 
[V:3] A6B2 | 
[V:4] A,,8 | 
[V:1] !fermata!A8 | 
[V:2] !fermata!F8 | 
[V:3] !fermata!c8 | 
[V:4] !fermata!F,,8 | 
[V:1] z4A4 | 
[V:2] z4c4 | 
[V:3] z4F4 | 
[V:4] z4F,,4 | 
[V:1] A4A4 | 
[V:2] c4B2A2 | 
[V:3] F4F4 | 
[V:4] F,,4F,,4 | 
[V:1] B8 | 
[V:2] G8 | 
[V:3] D8 | 
[V:4] G,,8 | 
[V:1] c8 | 
[V:2] E6F2 | 
[V:3] C8 | 
[V:4] A,,8 | 
[V:1] B8 | 
[V:2] G8 | 
[V:3] D4D4 | 
[V:4] G,,8 | 
[V:1] z4c4 | 
[V:2] _B4A4 | 
[V:3] G4E4 | 
[V:4] z4A,,4- | 
[V:1] d4e4- | 
[V:2] F4c4- | 
[V:3] D4G4- | 
[V:4] A,,2B,,2C,4- | 
[V:1] e4d4- | 
[V:2] c4A4 | 
[V:3] G4F4 | 
[V:4] C,4D,4 | 
[V:1] d4^c4 | 
[V:2] A8 | 
[V:3] E8 | 
[V:4] A,,8 | 
[V:1] d8- | 
[V:2] F6G2 | 
[V:3] D8- | 
[V:4] D,8- | 
[V:1] d8 ||  
[V:2] A8 ||  
[V:3] D8 ||  
[V:4] D,8 ||  
[V:1]  [K:C] [K:clef=treble-8][M:2/1]e8 | 
[V:2]  [K:C] [K:clef=treble-8][M:2/1]c8 | 
[V:3]  [K:C] [K:clef=treble-8][M:2/1]A8- | 
[V:4]  [K:C] [K:clef=bass][M:2/1]A,,8 | 
[V:1] f8- | 
[V:2] d8- | 
[V:3] A8- | 
[V:4] D,8- | 
[V:1] f4e4 | 
[V:2] d8 | 
[V:3] A8 | 
[V:4] D,4C,4 | 
[V:1] e8- | 
[V:2] c8 | 
[V:3] A6GF | 
[V:4] A,,8- | 
[V:1] e4d4 | 
[V:2] A8- | 
[V:3] E8- | 
[V:4] A,,8 | 
[V:1] c8 | 
[V:2] A8 | 
[V:3] E4F4 | 
[V:4] A,,8 | 
[V:1] !fermata!B8 | 
[V:2] !fermata!D8 | 
[V:3] !fermata!G8 | 
[V:4] !fermata!G,,8 | 
[V:1] z8 | 
[V:2] z8 | 
[V:3] z8 | 
[V:4] z8 | 
[V:1] B6c2 | 
[V:2] D8- | 
[V:3] G8- | 
[V:4] G,,8- | 
[V:1] d8- | 
[V:2] D8 | 
[V:3] G8- | 
[V:4] G,,8 | 
[V:1] d4c2B2 | 
[V:2] D6E2 | 
[V:3] G8 | 
[V:4] B,,4C,4 | 
[V:1] A8 | 
[V:2] F4D4- | 
[V:3] z4F4 | 
[V:4] D,8 | 
[V:1] B4c4 | 
[V:2] D4E4 | 
[V:3] G4A4 | 
[V:4] B,,4A,,4 | 
[V:1] d4B4- | 
[V:2] G4z4 | 
[V:3] _B4G4- | 
[V:4] G,,4E,4- | 
[V:1] B4A4 | 
[V:2] z4E4 | 
[V:3] G4A4 | 
[V:4] E,4A,,4 | 
[V:1] A8 ||  
[V:2] E8 ||  
[V:3] A8 ||  
[V:4] A,,8 ||  
[V:1]  [K:C] [K:clef=treble-8][M:2/1]A8 | 
[V:2]  [K:C] [K:clef=treble-8][M:2/1]E8- | 
[V:3]  [K:C] [K:clef=treble-8][M:2/1]A8- | 
[V:4]  [K:C] [K:clef=bass][M:2/1]A,,8- | 
[V:1] c8 | 
[V:2] E8 | 
[V:3] A8 | 
[V:4] A,,8 | 
[V:1] d4e4- | 
[V:2] F4E4 | 
[V:3] F4G4 | 
[V:4] D,4C,4 | 
[V:1] e2d2c2B2 | 
[V:2] E4F2G2 | 
[V:3] A6GF | 
[V:4] A,,8- | 
[V:1] c8 | 
[V:2] A8 | 
[V:3] E8 | 
[V:4] A,,8 | 
[V:1] d8 | 
[V:2] F8 | 
[V:3] D8 | 
[V:4] A,8 | 
[V:1] z8 | 
[V:2] A6Bc | 
[V:3] D8 | 
[V:4] F,8 | 
[V:1] f8 | 
[V:2] d8 | 
[V:3] A8 | 
[V:4] D,8 | 
[V:1] f4f4 | 
[V:2] d4d4 | 
[V:3] A4A4 | 
[V:4] D,4D,4 | 
[V:1] f4f4 | 
[V:2] d4d4 | 
[V:3] A4A4 | 
[V:4] D,4D,4 | 
[V:1] f8 | 
[V:2] d8 | 
[V:3] A8 | 
[V:4] D,4F,4 | 
[V:1] !fermata!e8 | 
[V:2] !fermata!c8 | 
[V:3] !fermata!G8 | 
[V:4] !fermata!C,8 | 
[V:1] z8 | 
[V:2] z8 | 
[V:3] z8 | 
[V:4] z8 | 
[V:1] e8 | 
[V:2] c8 | 
[V:3] C8 | 
[V:4] G,8 | 
[V:1] e4e4 | 
[V:2] c4c4 | 
[V:3] G4G4 | 
[V:4] C,8 | 
[V:1] e4e4 | 
[V:2] c4c4 | 
[V:3] A4A4 | 
[V:4] A,,8 | 
[V:1] e8 | 
[V:2] c8- | 
[V:3] A8 | 
[V:4] A,,4A,,4 | 
[V:1] f8- | 
[V:2] c8 | 
[V:3] A8- | 
[V:4] A,,8 | 
[V:1] f4e4 | 
[V:2] d8- | 
[V:3] A4A4 | 
[V:4] D,8- | 
[V:1] e8 | 
[V:2] d4c4 | 
[V:3] A8 | 
[V:4] D,4A,,4 | 
[V:1] f8 | 
[V:2] c8 | 
[V:3] F8 | 
[V:4] A,,8 | 
[V:1] d4c4 | 
[V:2] A8- | 
[V:3] D4E4 | 
[V:4] z8 | 
[V:1] d8 | 
[V:2] A4G4 | 
[V:3] F8 | 
[V:4] D,8 | 
[V:1] e8 | 
[V:2] A8 | 
[V:3] E8 | 
[V:4] A,,8 | 
[V:1] !fermata!c8 | 
[V:2] !fermata!A8 | 
[V:3] !fermata!E8 | 
[V:4] !fermata!A,,8 | 
[V:1] z8 | 
[V:2] z8 | 
[V:3] z8 | 
[V:4] z8 | 
[V:1] c8 | 
[V:2] A8 | 
[V:3] F8 | 
[V:4] F,8 | 
[V:1] d4d4 | 
[V:2] _B4_B4 | 
[V:3] F4F4 | 
[V:4] _B,,4B,,4 | 
[V:1] d4d4 | 
[V:2] _B4_B4 | 
[V:3] F4D4 | 
[V:4] _B,,4B,,4 | 
[V:1] d6c2 | 
[V:2] _B4A2G2 | 
[V:3] F8 | 
[V:4] _B,,8 | 
[V:1] A8 | 
[V:2] F4D4 | 
[V:3] F8 | 
[V:4] D,6C,2 | 
[V:1] c4B2A2 | 
[V:2] E8 | 
[V:3] A4G2F2 | 
[V:4] A,,8 | 
[V:1] B8 | 
[V:2] z4E4 | 
[V:3] G8 | 
[V:4] E,8 | 
[V:1] !fermata!A8 | 
[V:2] !fermata!E8 | 
[V:3] !fermata!A8 | 
[V:4] !fermata!A,,8 | 
[V:1] z8 | 
[V:2] z8 | 
[V:3] z8 | 
[V:4] z8 | 
[V:1] c8 | 
[V:2] E8 | 
[V:3] A8 | 
[V:4] A,,8 | 
[V:1] d4c4 | 
[V:2] D4E4 | 
[V:3] G4A4 | 
[V:4] _B,,4A,,4 | 
[V:1] c8 | 
[V:2] F8 | 
[V:3] A8 | 
[V:4] F,,8 | 
[V:1] e8 | 
[V:2] z4c4 | 
[V:3] G8 | 
[V:4] C,8 | 
[V:1] d4e4- | 
[V:2] B4c4- | 
[V:3] F4G4- | 
[V:4] D,4C,4- | 
[V:1] e4d4- | 
[V:2] c4G4 | 
[V:3] G4D4 | 
[V:4] C,4B,,4 | 
[V:1] d4^c4 | 
[V:2] A8 | 
[V:3] E8 | 
[V:4] A,,8 | 
[V:1] d8- | 
[V:2] F6G2 | 
[V:3] D8- | 
[V:4] D,8- | 
[V:1] d8 ||  
[V:2] A8 ||  
[V:3] D8 ||  
[V:4] D,8 ||  
[V:1]  [K:C] [K:clef=treble-8][M:2/1]d8 | 
[V:2]  [K:C] [K:clef=treble-8][M:2/1]A8 | 
[V:3]  [K:C] [K:clef=treble-8][M:2/1]F8 | 
[V:4]  [K:C] [K:clef=bass][M:2/1]D,8 | 
[V:1] d4d4 | 
[V:2] A4A2GF | 
[V:3] F4F4 | 
[V:4] D,4D,4 | 
[V:1] e4e4 | 
[V:2] E4C4 | 
[V:3] G4G4 | 
[V:4] C,4C,4 | 
[V:1] d4d4 | 
[V:2] D4D4 | 
[V:3] G4G4 | 
[V:4] B,,4B,,4 | 
[V:1] c8 | 
[V:2] E8 | 
[V:3] A8 | 
[V:4] A,,8 | 
[V:1] c8 | 
[V:2] E8 | 
[V:3] A8 | 
[V:4] A,,8 | 
[V:1] z8 | 
[V:2] D4E4 | 
[V:3] G4A4 | 
[V:4] _B,,4A,,4 | 
[V:1] d4d4 | 
[V:2] G8 | 
[V:3] _B8 | 
[V:4] G,,8 | 
[V:1] c4e4 | 
[V:2] E4C4 | 
[V:3] A4G2F2 | 
[V:4] A,,8 | 
[V:1] d8 | 
[V:2] D8 | 
[V:3] G8 | 
[V:4] _B,,8 | 
[V:1] c4e4- | 
[V:2] E8- | 
[V:3] A8 | 
[V:4] A,,8- | 
[V:1] e2d2c2B2 | 
[V:2] E8 | 
[V:3] A6B2 | 
[V:4] A,,8 | 
[V:1] !fermata!A8 | 
[V:2] !fermata!F8 | 
[V:3] !fermata!c8 | 
[V:4] !fermata!F,,8 | 
[V:1] z8 | 
[V:2] z8 | 
[V:3] z8 | 
[V:4] z8 | 
[V:1] A8 | 
[V:2] c4B2A2 | 
[V:3] F8 | 
[V:4] F,,8 | 
[V:1] B8 | 
[V:2] G8 | 
[V:3] D8 | 
[V:4] G,,8 | 
[V:1] c8 | 
[V:2] E6F2 | 
[V:3] C8 | 
[V:4] A,,8 | 
[V:1] B8 | 
[V:2] G8 | 
[V:3] D8 | 
[V:4] G,,8 | 
[V:1] z4c4 | 
[V:2] _B4A4 | 
[V:3] G4E4 | 
[V:4] z4A,,4- | 
[V:1] d4e4- | 
[V:2] F4c4- | 
[V:3] D4G4- | 
[V:4] A,,2B,,2C,4- | 
[V:1] e4d4- | 
[V:2] c4A4 | 
[V:3] G4F4 | 
[V:4] C,4D,4 | 
[V:1] d4^c4 | 
[V:2] A8 | 
[V:3] E8 | 
[V:4] A,,8 | 
[V:1] d8- | 
[V:2] F6G2 | 
[V:3] D8- | 
[V:4] D,8- | 
[V:1] d8 ||  
[V:2] A8 ||  
[V:3] D8 ||  
[V:4] D,8 ||  
[V:1]  [K:C] [K:clef=treble-8][M:2/1]e8 | 
[V:2]  [K:C] [K:clef=treble-8][M:2/1]c8 | 
[V:3]  [K:C] [K:clef=treble-8][M:2/1]A8- | 
[V:4]  [K:C] [K:clef=bass][M:2/1]A,,8 | 
[V:1] f8- | 
[V:2] d8- | 
[V:3] A8 | 
[V:4] D,8- | 
[V:1] f4e4 | 
[V:2] d8 | 
[V:3] A8- | 
[V:4] D,4C,4 | 
[V:1] e8- | 
[V:2] c8 | 
[V:3] A8 | 
[V:4] A,,8 | 
[V:1] e4d4 | 
[V:2] A8- | 
[V:3] E8- | 
[V:4] A,,8- | 
[V:1] c8 | 
[V:2] A8 | 
[V:3] E4F4 | 
[V:4] A,,8 | 
[V:1] !fermata!B8 | 
[V:2] !fermata!D8 | 
[V:3] !fermata!G8 | 
[V:4] !fermata!G,,8 | 
[V:1] z8 | 
[V:2] z8 | 
[V:3] z8 | 
[V:4] z8 | 
[V:1] B6c2 | 
[V:2] D8- | 
[V:3] G8 | 
[V:4] G,,8- | 
[V:1] d8- | 
[V:2] D8 | 
[V:3] G8- | 
[V:4] G,,8 | 
[V:1] d4c2B2 | 
[V:2] D6E2 | 
[V:3] G8 | 
[V:4] B,,4C,4 | 
[V:1] A8 | 
[V:2] F4D4- | 
[V:3] z4F4 | 
[V:4] D,8 | 
[V:1] B4c4 | 
[V:2] D4E4 | 
[V:3] G4A4 | 
[V:4] B,,4A,,4 | 
[V:1] d4B4- | 
[V:2] G4z4 | 
[V:3] _B4G4- | 
[V:4] G,,4E,4- | 
[V:1] B4A4 | 
[V:2] z4E4 | 
[V:3] G4A4 | 
[V:4] E,4A,,4 | 
[V:1] !fermata!A8 | 
[V:2] !fermata!E8 | 
[V:3] !fermata!A8 | 
[V:4] !fermata!A,,8 | 
[V:1] e8 | 
[V:2] c8 | 
[V:3] A8 | 
[V:4] A,,8 | 
[V:1] e8- | 
[V:2] c8- | 
[V:3] G8- | 
[V:4] C,8- | 
[V:1] e4f4 | 
[V:2] c4A4 | 
[V:3] G4F4 | 
[V:4] C,4D,4 | 
[V:1] d8 | 
[V:2] D8 | 
[V:3] G8 | 
[V:4] B,,8 | 
[V:1] !fermata!c8 | 
[V:2] !fermata!E8 | 
[V:3] !fermata!A8 | 
[V:4] !fermata!A,,8 | 
[V:1] z8 | 
[V:2] z8 | 
[V:3] z8 | 
[V:4] z8 | 
[V:1] c8 | 
[V:2] E8 | 
[V:3] A8 | 
[V:4] A,,8 | 
[V:1] c6d2 | 
[V:2] E8 | 
[V:3] A4G2F2 | 
[V:4] A,,8 | 
[V:1] e3dc2B2 | 
[V:2] C8 | 
[V:3] E8 | 
[V:4] A,,8 | 
[V:1] !fermata!A8 | 
[V:2] !fermata!C8 | 
[V:3] !fermata!F8 | 
[V:4] !fermata!F,,8 | 
[V:1] z8 | 
[V:2] z8 | 
[V:3] z8 | 
[V:4] z8 | 
[V:1] c6d2 | 
[V:2] F8 | 
[V:3] A8 | 
[V:4] F,,8 | 
[V:1] e8 | 
[V:2] G4c4 | 
[V:3] G8 | 
[V:4] C,8 | 
[V:1] f4e2d2 | 
[V:2] A8- | 
[V:3] F8 | 
[V:4] D,8 | 
[V:1] ^c8 | 
[V:2] A8 | 
[V:3] E8 | 
[V:4] A,,8 | 
[V:1] d8- | 
[V:2] F6G2 | 
[V:3] D8- | 
[V:4] D,8- | 
[V:1] d8 |]  
[V:2] A8 |]  
[V:3] D8 |]  
[V:4] D,8 |]  



